img/useCases/Flights Bookings.svg

<svg width="94" height="94" viewBox="0 0 94 94" fill="none" xmlns="http://www.w3.org/2000/svg">
<path d="M93.8002 47.0001C93.8002 72.8471 72.8471 93.8002 47.0001 93.8002C21.1531 93.8002 0.2 72.8471 0.2 47.0001C0.2 21.1531 21.1531 0.2 47.0001 0.2C72.8471 0.2 93.8002 21.1531 93.8002 47.0001Z" fill="#F9FBFF" stroke="#0037FC" stroke-width="0.4"/>
<path d="M40.163 41.2992C41.6792 43.0042 42.1675 43.1429 42.6085 43.1429C43.0554 43.1429 43.5489 43.0042 45.0671 41.2998C45.996 40.2572 47.028 38.9316 47.9732 37.5668C49.4762 35.3968 51.9973 31.319 51.9973 28.3888C51.9973 23.2119 47.7856 19 42.6085 19C37.4314 19 33.2197 23.2119 33.2197 28.3888C33.2197 31.1678 35.4149 34.9142 37.2565 37.5677C38.2006 38.9278 39.2329 40.253 40.163 41.2992ZM38.77 28.3238C38.77 26.1903 40.5058 24.4546 42.6393 24.4546C44.7729 24.4546 46.5087 26.1903 46.5087 28.3238C46.5087 30.4574 44.7729 32.1932 42.6393 32.1932C40.5058 32.1932 38.77 30.4574 38.77 28.3238Z" fill="#0037FC"/>
<path d="M67.3704 34.8501H53.8667L53.5544 35.2649C53.5001 35.3372 48.1068 42.4964 47.0584 43.6731C45.6972 45.2011 44.4228 46.4659 42.6082 46.4659C40.8012 46.4659 39.5295 45.2011 38.1706 43.6731C37.1219 42.4937 31.7235 35.3365 31.669 35.2645L31.3566 34.8501H28.6392C27.7023 34.8501 26.8413 35.6241 26.8413 36.5399V51.3004H68.9042V36.5399C68.9045 35.5924 68.2696 34.8501 67.3704 34.8501Z" fill="#0037FC"/>
<path d="M26.8418 67.3341C26.8418 68.2527 27.6585 69 28.577 69H54.1202V56.0896H26.8418V67.3341Z" fill="#0037FC"/>
<path d="M58.9092 69H67.3078C68.2263 69 68.9043 68.2527 68.9043 67.3341V56.0896H58.9092V69Z" fill="#0037FC"/>
</svg>

<svg width="94" height="94" fill="none" xmlns="http://www.w3.org/2000/svg"><path d="M93.8 47c0 25.847-20.953 46.8-46.8 46.8C21.153 93.8.2 72.847.2 47 .2 21.153 21.153.2 47 .2 72.847.2 93.8 21.153 93.8 47z" fill="#F9FBFF" stroke="#0037FC" stroke-width=".4"/><path d="M40.163 41.3c1.516 1.704 2.005 1.843 2.446 1.843.446 0 .94-.139 2.458-1.843.929-1.043 1.961-2.368 2.906-3.733 1.503-2.17 4.024-6.248 4.024-9.178 0-5.177-4.211-9.389-9.389-9.389-5.177 0-9.388 4.212-9.388 9.389 0 2.779 2.195 6.525 4.037 9.179a40.975 40.975 0 002.906 3.731zM38.77 28.323a3.874 3.874 0 013.87-3.87 3.874 3.874 0 013.869 3.87 3.874 3.874 0 01-3.87 3.87 3.874 3.874 0 01-3.869-3.87z" fill="#0037FC"/><path d="M67.37 34.85H53.867l-.313.415c-.054.072-5.447 7.231-6.496 8.408-1.36 1.528-2.635 2.793-4.45 2.793-1.807 0-3.078-1.265-4.437-2.793-1.05-1.18-6.447-8.337-6.502-8.409l-.312-.414h-2.718c-.937 0-1.798.774-1.798 1.69V51.3h42.063V36.54c0-.948-.634-1.69-1.534-1.69zM26.842 67.334c0 .919.817 1.666 1.735 1.666H54.12V56.09H26.842v11.244zM58.91 69h8.398c.918 0 1.596-.747 1.596-1.666V56.09H58.91V69z" fill="#0037FC"/></svg>
